icons/rss3-wrss3.svg

<svg xmlns="http://www.w3.org/2000/svg" width="505" height="505" fill="none">
  <path fill="#35C4E7" d="M0 0h505v505H0z"/>
  <path fill="#fff" d="M414.169 391.897c-1.477 2.375-4.008 3.887-6.751 3.887h-59.49c-2.953 0-5.696-1.728-6.962-4.535l-33.753-69.536c-2.32-4.535-6.962-7.559-12.025-7.559H192.452c-2.11 0-3.797 1.728-3.797 3.887v69.969c0 4.535-3.587 7.99-7.806 7.99h-47.044c-4.43 0-7.805-3.671-7.805-7.99V258.007c0-4.535 3.586-7.99 7.805-7.99h158.219c5.696 0 10.548-4.751 10.548-10.798v-55.284c0-5.83-4.641-10.797-10.548-10.797H133.805c-4.43 0-7.805-3.671-7.805-7.991V116.99c0-4.535 3.586-7.99 7.805-7.99h165.603c4.43 0 7.805 3.671 7.805 7.99v38.224c0 5.83 4.641 10.797 10.548 10.797h39.66c4.43 0 7.806 3.671 7.806 7.991v75.151c0 4.535-3.587 7.99-7.806 7.99h-39.66c-5.696 0-10.548 4.751-10.548 10.798v27.641c0 7.559 5.907 13.605 13.29 13.605h52.318c2.953 0 5.696 1.728 6.962 4.535l34.386 70.617c1.266 2.591 1.055 5.398-.422 7.774z"/>
</svg>

<svg width="505" height="505" viewBox="0 0 505 505" fill="none" xmlns="http://www.w3.org/2000/svg">
<rect width="505" height="505" fill="#35C4E7"/>
<path d="M414.169 391.897C412.692 394.272 410.161 395.784 407.418 395.784H347.928C344.975 395.784 342.232 394.056 340.966 391.249L307.213 321.713C304.893 317.178 300.251 314.154 295.188 314.154H192.452C190.342 314.154 188.655 315.882 188.655 318.041V388.01C188.655 392.545 185.068 396 180.849 396H133.805C129.375 396 126 392.329 126 388.01V258.007C126 253.472 129.586 250.017 133.805 250.017H292.024C297.72 250.017 302.572 245.266 302.572 239.219V183.935C302.572 178.105 297.931 173.138 292.024 173.138H133.805C129.375 173.138 126 169.467 126 165.147V116.99C126 112.455 129.586 109 133.805 109H299.408C303.838 109 307.213 112.671 307.213 116.99V155.214C307.213 161.044 311.854 166.011 317.761 166.011H357.421C361.851 166.011 365.227 169.682 365.227 174.002V249.153C365.227 253.688 361.64 257.143 357.421 257.143H317.761C312.065 257.143 307.213 261.894 307.213 267.941V295.582C307.213 303.141 313.12 309.187 320.503 309.187H372.821C375.774 309.187 378.517 310.915 379.783 313.722L414.169 384.339C415.435 386.93 415.224 389.737 413.747 392.113L414.169 391.897Z" fill="white"/>
</svg>
